X:185
T:Ristmans polska
R:sl\"angpolska
A:\"Osterg\"otland
B:SvL \"Ogl 366, efter Nils Olsson, Sj\"ogestad, V{\aa}nga
Z:id:hn-sp-185
M:3/4
L:1/16
K:D
DFAF DFAd f2d2 | d2ef gfge f2d2 | DFAF DFAd f2d2 | cded c2A2 a4 :|
|: a4 fdfa fdfa | a2b2 gegb b2a2 | a2ba gfed cdef | gagf edcB AGFE |
D2a2 fdfa fdfa | a2b2 gegb b2a2 | a2ba gfed cdef | gfed c2d2 d4 :|
<end>
<start>
